static/img/kroki/bea30cb00fdeb2f984f76080588a2469.svg

<?xml version="1.0" encoding="us-ascii" standalone="no"?><svg xmlns="http://www.w3.org/2000/svg" xmlns:xlink="http://www.w3.org/1999/xlink" contentStyleType="text/css" height="679px" preserveAspectRatio="none" style="width:423px;height:679px;" version="1.1" viewBox="0 0 423 679" width="423px" zoomAndPan="magnify"><defs/><g><!--class access_key--><g id="elem_access_key"><rect codeLine="23" fill="#3D176E" height="74.0859" id="access_key" rx="2.5" ry="2.5" style="stroke:#000D19;stroke-width:0.5;" width="216" x="118" y="438.76"/><ellipse cx="171.25" cy="458.6545" fill="#ADD1B2" rx="11" ry="11" style="stroke:#181818;stroke-width:1.0;"/><path d="M174.2188,464.2952 Q173.6406,464.592 173,464.7327 Q172.3594,464.8889 171.6563,464.8889 Q169.1563,464.8889 167.8281,463.2483 Q166.5156,461.592 166.5156,458.467 Q166.5156,455.342 167.8281,453.6858 Q169.1563,452.0295 171.6563,452.0295 Q172.3594,452.0295 173,452.1858 Q173.6563,452.342 174.2188,452.6389 L174.2188,455.3577 Q173.5938,454.7795 173,454.5139 Q172.4063,454.2327 171.7813,454.2327 Q170.4375,454.2327 169.75,455.3108 Q169.0625,456.3733 169.0625,458.467 Q169.0625,460.5608 169.75,461.6389 Q170.4375,462.7014 171.7813,462.7014 Q172.4063,462.7014 173,462.4358 Q173.5938,462.1545 174.2188,461.5764 L174.2188,464.2952 Z " fill="#000000"/><text fill="#D9B8FF" font-family="Helvetica" font-size="17" lengthAdjust="spacing" textLength="91" x="196.75" y="464.5398">access_key</text><line style="stroke:#000D19;stroke-width:0.5;" x1="119" x2="333" y1="478.5491" y2="478.5491"/><text fill="#D9B8FF" font-family="sans-serif" font-size="14" font-weight="bold" lengthAdjust="spacing" textLength="146" x="129" y="500.5442">access_key_status</text><text fill="#D9B8FF" font-family="sans-serif" font-size="14" lengthAdjust="spacing" textLength="48" x="275" y="500.5442">: string</text></g><!--class aws_iam_access_key--><g id="elem_aws_iam_access_key"><rect codeLine="26" fill="#3D176E" height="39.7891" id="aws_iam_access_key" rx="2.5" ry="2.5" style="stroke:#000D19;stroke-width:0.5;" width="216" x="7" y="633.84"/><ellipse cx="22" cy="653.7345" fill="#ADD1B2" rx="11" ry="11" style="stroke:#181818;stroke-width:1.0;"/><path d="M24.9688,659.3752 Q24.3906,659.672 23.75,659.8127 Q23.1094,659.9689 22.4063,659.9689 Q19.9063,659.9689 18.5781,658.3283 Q17.2656,656.672 17.2656,653.547 Q17.2656,650.422 18.5781,648.7658 Q19.9063,647.1095 22.4063,647.1095 Q23.1094,647.1095 23.75,647.2658 Q24.4063,647.422 24.9688,647.7189 L24.9688,650.4377 Q24.3438,649.8595 23.75,649.5939 Q23.1563,649.3127 22.5313,649.3127 Q21.1875,649.3127 20.5,650.3908 Q19.8125,651.4533 19.8125,653.547 Q19.8125,655.6408 20.5,656.7189 Q21.1875,657.7814 22.5313,657.7814 Q23.1563,657.7814 23.75,657.5158 Q24.3438,657.2345 24.9688,656.6564 L24.9688,659.3752 Z " fill="#000000"/><text fill="#D9B8FF" font-family="Helvetica" font-size="17" lengthAdjust="spacing" textLength="174" x="41" y="659.6198">aws_iam_access_key</text></g><!--class aws_kms_key--><g id="elem_aws_kms_key"><rect codeLine="29" fill="#3D176E" height="39.7891" id="aws_kms_key" rx="2.5" ry="2.5" style="stroke:#000D19;stroke-width:0.5;" width="158" x="258" y="633.84"/><ellipse cx="273" cy="653.7345" fill="#ADD1B2" rx="11" ry="11" style="stroke:#181818;stroke-width:1.0;"/><path d="M275.9688,659.3752 Q275.3906,659.672 274.75,659.8127 Q274.1094,659.9689 273.4063,659.9689 Q270.9063,659.9689 269.5781,658.3283 Q268.2656,656.672 268.2656,653.547 Q268.2656,650.422 269.5781,648.7658 Q270.9063,647.1095 273.4063,647.1095 Q274.1094,647.1095 274.75,647.2658 Q275.4063,647.422 275.9688,647.7189 L275.9688,650.4377 Q275.3438,649.8595 274.75,649.5939 Q274.1563,649.3127 273.5313,649.3127 Q272.1875,649.3127 271.5,650.3908 Q270.8125,651.4533 270.8125,653.547 Q270.8125,655.6408 271.5,656.7189 Q272.1875,657.7814 273.5313,657.7814 Q274.1563,657.7814 274.75,657.5158 Q275.3438,657.2345 275.9688,656.6564 L275.9688,659.3752 Z " fill="#000000"/><text fill="#D9B8FF" font-family="Helvetica" font-size="17" lengthAdjust="spacing" textLength="116" x="292" y="659.6198">aws_kms_key</text></g><!--class resource--><g id="elem_resource"><rect codeLine="32" fill="#3D176E" height="310.7578" id="resource" rx="2.5" ry="2.5" style="stroke:#000D19;stroke-width:0.5;" width="227" x="112.5" y="7"/><ellipse cx="181.25" cy="26.8945" fill="#ADD1B2" rx="11" ry="11" style="stroke:#181818;stroke-width:1.0;"/><path d="M184.2188,32.5352 Q183.6406,32.832 183,32.9727 Q182.3594,33.1289 181.6563,33.1289 Q179.1563,33.1289 177.8281,31.4883 Q176.5156,29.832 176.5156,26.707 Q176.5156,23.582 177.8281,21.9258 Q179.1563,20.2695 181.6563,20.2695 Q182.3594,20.2695 183,20.4258 Q183.6563,20.582 184.2188,20.8789 L184.2188,23.5977 Q183.5938,23.0195 183,22.7539 Q182.4063,22.4727 181.7813,22.4727 Q180.4375,22.4727 179.75,23.5508 Q179.0625,24.6133 179.0625,26.707 Q179.0625,28.8008 179.75,29.8789 Q180.4375,30.9414 181.7813,30.9414 Q182.4063,30.9414 183,30.6758 Q183.5938,30.3945 184.2188,29.8164 L184.2188,32.5352 Z " fill="#000000"/><text fill="#D9B8FF" font-family="Helvetica" font-size="17" lengthAdjust="spacing" textLength="71" x="206.75" y="32.7798">resource</text><line style="stroke:#000D19;stroke-width:0.5;" x1="113.5" x2="338.5" y1="46.7891" y2="46.7891"/><text fill="#D9B8FF" font-family="sans-serif" font-size="14" font-weight="bold" lengthAdjust="spacing" textLength="29" x="123.5" y="68.7842">age</text><text fill="#D9B8FF" font-family="sans-serif" font-size="14" lengthAdjust="spacing" textLength="66" x="152.5" y="68.7842">: duration</text><text fill="#D9B8FF" font-family="sans-serif" font-size="14" font-weight="bold" lengthAdjust="spacing" textLength="43" x="123.5" y="95.0811">atime</text><text fill="#D9B8FF" font-family="sans-serif" font-size="14" lengthAdjust="spacing" textLength="70" x="166.5" y="95.0811">: datetime</text><text fill="#D9B8FF" font-family="sans-serif" font-size="14" font-weight="bold" lengthAdjust="spacing" textLength="43" x="123.5" y="121.3779">ctime</text><text fill="#D9B8FF" font-family="sans-serif" font-size="14" lengthAdjust="spacing" textLength="70" x="166.5" y="121.3779">: datetime</text><text fill="#D9B8FF" font-family="sans-serif" font-size="14" font-weight="bold" lengthAdjust="spacing" textLength="14" x="123.5" y="147.6748">id</text><text fill="#D9B8FF" font-family="sans-serif" font-size="14" lengthAdjust="spacing" textLength="48" x="137.5" y="147.6748">: string</text><text fill="#D9B8FF" font-family="sans-serif" font-size="14" font-weight="bold" lengthAdjust="spacing" textLength="33" x="123.5" y="173.9717">kind</text><text fill="#D9B8FF" font-family="sans-serif" font-size="14" lengthAdjust="spacing" textLength="48" x="156.5" y="173.9717">: string</text><text fill="#D9B8FF" font-family="sans-serif" font-size="14" font-weight="bold" lengthAdjust="spacing" textLength="90" x="123.5" y="200.2686">last_access</text><text fill="#D9B8FF" font-family="sans-serif" font-size="14" lengthAdjust="spacing" textLength="66" x="213.5" y="200.2686">: duration</text><text fill="#D9B8FF" font-family="sans-serif" font-size="14" font-weight="bold" lengthAdjust="spacing" textLength="90" x="123.5" y="226.5654">last_update</text><text fill="#D9B8FF" font-family="sans-serif" font-size="14" lengthAdjust="spacing" textLength="66" x="213.5" y="226.5654">: duration</text><text fill="#D9B8FF" font-family="sans-serif" font-size="14" font-weight="bold" lengthAdjust="spacing" textLength="48" x="123.5" y="252.8623">mtime</text><text fill="#D9B8FF" font-family="sans-serif" font-size="14" lengthAdjust="spacing" textLength="70" x="171.5" y="252.8623">: datetime</text><text fill="#D9B8FF" font-family="sans-serif" font-size="14" font-weight="bold" lengthAdjust="spacing" textLength="43" x="123.5" y="279.1592">name</text><text fill="#D9B8FF" font-family="sans-serif" font-size="14" lengthAdjust="spacing" textLength="48" x="166.5" y="279.1592">: string</text><text fill="#D9B8FF" font-family="sans-serif" font-size="14" font-weight="bold" lengthAdjust="spacing" textLength="34" x="123.5" y="305.4561">tags</text><text fill="#D9B8FF" font-family="sans-serif" font-size="14" lengthAdjust="spacing" textLength="171" x="157.5" y="305.4561">: dictionary[string, string]</text></g><!--reverse link resource to access_key--><g id="link_resource_access_key"><path codeLine="44" d="M226,336.17 C226,381.21 226,408.34 226,438.51 " fill="none" id="resource-backto-access_key" style="stroke:#FFAF37;stroke-width:2.0;"/><polygon fill="none" points="226,318.17,220,336.17,232,336.17,226,318.17" style="stroke:#FFAF37;stroke-width:2.0;"/></g><!--reverse link access_key to aws_iam_access_key--><g id="link_access_key_aws_iam_access_key"><path codeLine="45" d="M193.3974,528.4746 C170.2874,565.1146 145.16,604.93 127.01,633.69 " fill="none" id="access_key-backto-aws_iam_access_key" style="stroke:#FFAF37;stroke-width:2.0;"/><polygon fill="none" points="203,513.25,188.3225,525.2737,198.4722,531.6755,203,513.25" style="stroke:#FFAF37;stroke-width:2.0;"/></g><!--reverse link access_key to aws_kms_key--><g id="link_access_key_aws_kms_key"><path codeLine="46" d="M258.6026,528.4746 C281.7126,565.1146 306.84,604.93 324.99,633.69 " fill="none" id="access_key-backto-aws_kms_key" style="stroke:#FFAF37;stroke-width:2.0;"/><polygon fill="none" points="249,513.25,253.5278,531.6755,263.6775,525.2737,249,513.25" style="stroke:#FFAF37;stroke-width:2.0;"/></g><!--SRC=[XP9FJy904CNl_HIRU6ia0OaYnWkI6BqGezwC8SFk53RjxZQpKmd- -Uwsjk3IWjxeUx-TzsR2IYiKQ7BU28DcWUGZdsgR0u4H4oAtdhhCaJX94aY6exPvwop_2yp0eBZ3x0rPIsWJpoijKulUYxF0kW6PBiaLLjNZcS3wqaBB0JNDmFi9C-b5mHYKKUF5PPAqoVRGaw4QZ2wmWpbII0tIx_VLODn6_etwS-yTyQJVKGp2eyqSOwTc9-A7-hDbHGGbEujk_QCT7q0fRPVYFD0UwqvaaVRqfnKejwxe138VndX6GiUR7AUThN1ygPBHGVZ-61p9wdG2f2p_CFCKD-8ZYkFVpxbduCB7yLKvZSf6qTVsoThFDPZvtjCzDpKTcT2xWYJMAKkivgg2WBMpbSBQr1emLhzBJHxGj0eAnN6vyBvGPd5Jh9NmunHvDQlbc0Cv5cffDvXXMK_Kide6j7cflTE6UIrNtIrv_TdhzOBRHi6j6gzpnCDCSyhe6m00]--></g></svg>

<svg xmlns="http://www.w3.org/2000/svg" width="423" height="679" viewBox="0 0 423 679"><rect width="216" height="74.086" x="118" y="438.76" fill="#3D176E" rx="2.5" ry="2.5" style="stroke:#000d19;stroke-width:.5"/><circle cx="171.25" cy="458.654" r="11" fill="#ADD1B2" style="stroke:#181818;stroke-width:1"/><path d="M174.219 464.295q-.578.297-1.219.438-.64.156-1.344.156-2.5 0-3.828-1.64-1.312-1.657-1.312-4.782t1.312-4.781q1.328-1.656 3.828-1.656.703 0 1.344.156.656.156 1.219.453v2.719q-.625-.579-1.219-.844-.594-.281-1.219-.281-1.344 0-2.031 1.078-.687 1.062-.687 3.156t.687 3.172q.688 1.062 2.031 1.062.625 0 1.219-.265.594-.281 1.219-.86z"/><text x="196.75" y="464.54" fill="#D9B8FF" font-family="Helvetica" font-size="17" textLength="91">access_key</text><path d="M119 478.549h214" style="stroke:#000d19;stroke-width:.5"/><text x="129" y="500.544" fill="#D9B8FF" font-family="sans-serif" font-size="14" font-weight="bold" textLength="146">access_key_status</text><text x="275" y="500.544" fill="#D9B8FF" font-family="sans-serif" font-size="14" textLength="48">: string</text><rect width="216" height="39.789" x="7" y="633.84" fill="#3D176E" rx="2.5" ry="2.5" style="stroke:#000d19;stroke-width:.5"/><circle cx="22" cy="653.735" r="11" fill="#ADD1B2" style="stroke:#181818;stroke-width:1"/><path d="M24.969 659.375q-.578.297-1.219.438-.64.156-1.344.156-2.5 0-3.828-1.64-1.312-1.657-1.312-4.782t1.312-4.781q1.328-1.656 3.828-1.656.703 0 1.344.156.656.156 1.219.453v2.719q-.625-.578-1.219-.844-.594-.281-1.219-.281-1.343 0-2.031 1.078-.687 1.062-.687 3.156t.687 3.172q.688 1.062 2.031 1.062.625 0 1.219-.265.594-.281 1.219-.86z"/><text x="41" y="659.62" fill="#D9B8FF" font-family="Helvetica" font-size="17" textLength="174">aws_iam_access_key</text><rect width="158" height="39.789" x="258" y="633.84" fill="#3D176E" rx="2.5" ry="2.5" style="stroke:#000d19;stroke-width:.5"/><circle cx="273" cy="653.735" r="11" fill="#ADD1B2" style="stroke:#181818;stroke-width:1"/><path d="M275.969 659.375q-.578.297-1.219.438-.64.156-1.344.156-2.5 0-3.828-1.64-1.312-1.657-1.312-4.782t1.312-4.781q1.328-1.656 3.828-1.656.703 0 1.344.156.656.156 1.219.453v2.719q-.625-.578-1.219-.844-.594-.281-1.219-.281-1.344 0-2.031 1.078-.687 1.062-.687 3.156t.687 3.172q.688 1.062 2.031 1.062.625 0 1.219-.265.594-.281 1.219-.86z"/><text x="292" y="659.62" fill="#D9B8FF" font-family="Helvetica" font-size="17" textLength="116">aws_kms_key</text><rect width="227" height="310.758" x="112.5" y="7" fill="#3D176E" rx="2.5" ry="2.5" style="stroke:#000d19;stroke-width:.5"/><circle cx="181.25" cy="26.895" r="11" fill="#ADD1B2" style="stroke:#181818;stroke-width:1"/><path d="M184.219 32.535q-.578.297-1.219.438-.64.156-1.344.156-2.5 0-3.828-1.64-1.312-1.657-1.312-4.782t1.312-4.781q1.328-1.656 3.828-1.656.703 0 1.344.156.656.156 1.219.453v2.719q-.625-.578-1.219-.844-.594-.281-1.219-.281-1.344 0-2.031 1.078-.687 1.062-.687 3.156t.687 3.172q.688 1.062 2.031 1.062.625 0 1.219-.265.594-.281 1.219-.86z"/><text x="206.75" y="32.78" fill="#D9B8FF" font-family="Helvetica" font-size="17" textLength="71">resource</text><path d="M113.5 46.789h225" style="stroke:#000d19;stroke-width:.5"/><text x="123.5" y="68.784" fill="#D9B8FF" font-family="sans-serif" font-size="14" font-weight="bold" textLength="29">age</text><text x="152.5" y="68.784" fill="#D9B8FF" font-family="sans-serif" font-size="14" textLength="66">: duration</text><text x="123.5" y="95.081" fill="#D9B8FF" font-family="sans-serif" font-size="14" font-weight="bold" textLength="43">atime</text><text x="166.5" y="95.081" fill="#D9B8FF" font-family="sans-serif" font-size="14" textLength="70">: datetime</text><text x="123.5" y="121.378" fill="#D9B8FF" font-family="sans-serif" font-size="14" font-weight="bold" textLength="43">ctime</text><text x="166.5" y="121.378" fill="#D9B8FF" font-family="sans-serif" font-size="14" textLength="70">: datetime</text><text x="123.5" y="147.675" fill="#D9B8FF" font-family="sans-serif" font-size="14" font-weight="bold" textLength="14">id</text><text x="137.5" y="147.675" fill="#D9B8FF" font-family="sans-serif" font-size="14" textLength="48">: string</text><text x="123.5" y="173.972" fill="#D9B8FF" font-family="sans-serif" font-size="14" font-weight="bold" textLength="33">kind</text><text x="156.5" y="173.972" fill="#D9B8FF" font-family="sans-serif" font-size="14" textLength="48">: string</text><text x="123.5" y="200.269" fill="#D9B8FF" font-family="sans-serif" font-size="14" font-weight="bold" textLength="90">last_access</text><text x="213.5" y="200.269" fill="#D9B8FF" font-family="sans-serif" font-size="14" textLength="66">: duration</text><text x="123.5" y="226.565" fill="#D9B8FF" font-family="sans-serif" font-size="14" font-weight="bold" textLength="90">last_update</text><text x="213.5" y="226.565" fill="#D9B8FF" font-family="sans-serif" font-size="14" textLength="66">: duration</text><text x="123.5" y="252.862" fill="#D9B8FF" font-family="sans-serif" font-size="14" font-weight="bold" textLength="48">mtime</text><text x="171.5" y="252.862" fill="#D9B8FF" font-family="sans-serif" font-size="14" textLength="70">: datetime</text><text x="123.5" y="279.159" fill="#D9B8FF" font-family="sans-serif" font-size="14" font-weight="bold" textLength="43">name</text><text x="166.5" y="279.159" fill="#D9B8FF" font-family="sans-serif" font-size="14" textLength="48">: string</text><text x="123.5" y="305.456" fill="#D9B8FF" font-family="sans-serif" font-size="14" font-weight="bold" textLength="34">tags</text><text x="157.5" y="305.456" fill="#D9B8FF" font-family="sans-serif" font-size="14" textLength="171">: dictionary[string, string]</text><path fill="none" d="M226 336.17v102.34m0-120.34-6 18h12zm-32.603 210.305c-23.11 36.64-48.237 76.455-66.387 105.215M203 513.25l-14.678 12.024 10.15 6.402zm55.603 15.225c23.11 36.64 48.237 76.455 66.387 105.215M249 513.25l4.528 18.426 10.15-6.402z" style="stroke:#ffaf37;stroke-width:2"/></svg>
